X:18720
T:White Cockade Country Dance. GHW.044
M:2/4
L:1/16
Q:100
S:George H.Watson,MS,Swanton Abbott,Norfolk,1850-1880
R:Scots Measure
O:England
A:Norfolk
Z:vmp.Taz Tarry
K:G
(GA)|B2B2 cBAG|B2B2 B2g2|d2B2 cBAG|FGAB A2GA|!
B2B2 cBAG|B2d2 g2ga|bagf agfe|d2B2B2:|!
(Bc)|d2B2g2B2|d2d2 d2(Bc)|d2B2 g2(fg)|a2A2 A2(GA)|!
B2B2 cBAG|B2d2 g2(ga)|bagf agfe|d2B2B2:|


